X: 741
T: Áille's Arabesque
R: slip jig
M: 9/8
K: Gmajor
!slide!A2 d{c/}BAG {c/}GF/E/D|~E3 D{A/}DB DE/F/G|!slide!A2 d{c/}BAG GB/c/d|{a/}edg {a/}edB {c/}BAG|
A2d{c/}BAG {c/}GF/E/D|~E3 D{A/}DB DE/F/G|A2 d{c/}BAG {c/}GB/c/d|{a/}edg {a/}edB {c/}Bcd|
ez a{c'/}age dBA|~B3 ~G2A{c/}Bcd|ez a{c'/}age ~g2b|age d{c/}BA Bcd|
~e3 {c'/}age dBA|!slide!~B3 ~G2 A {c/}Bcd|e2a {c'/}age ~g2b|age dBA ~B2G|A2||

